!!!COM: Palestrina, Giovanni Perluigi da
!!!OPR: De Beata Marie Virginis (I)
!!!OTL: Sanctus
**kern	**kern	**kern	**kern	**kern
*Ibass	*Itenor	*Itenor	*Icalto	*Icant
!Bassus	!Tenor 2	!Tenor 1	!Altus	!Cantus
*clefF4	*clefGv2	*clefGv2	*clefG2	*clefG2
*k[]	*k[]	*k[]	*k[]	*k[]
*G:mix	*G:mix	*G:mix	*G:mix	*G:mix
*M4/2	*M4/2	*M4/2	*M4/2	*M4/2
=1	=1	=1	=1	=1
0r	0r	1g	0r	0r
.	.	1e	.	.
=2	=2	=2	=2	=2
0r	0r	1d	0r	1dd
.	.	1e	.	1b
=3	=3	=3	=3	=3
0r	0r	1f	1r	1a
.	.	1e	1g	1b
=4	=4	=4	=4	=4
1r	0r	[0g	1e	1.cc
1G	.	.	1d	.
.	.	.	.	2b
=5	=5	=5	=5	=5
1E	1r	1g]	1e	4g
.	.	.	.	4a
.	.	.	.	4b
.	.	.	.	4cc#
1D	1d	1a	1f	1dd
=6	=6	=6	=6	=6
1E	1B	2g	2e	0r
.	.	1e	2g	.
1F	1A	.	1a	.
.	.	2d	.	.
=7	=7	=7	=7	=7
1E	1B	1.e	2.g	2r
.	.	.	.	1ee
.	.	.	4f	.
1A	1c	.	4e	.
.	.	.	4d	.
.	.	2A	2c	2ff#
=8	=8	=8	=8	=8
1G	1B	2r	4d	2gg
.	.	.	4c#	.
.	.	2.d	4d	4dd
.	.	.	4e	4cc#
[1D	[1d	.	2.f	4dd
.	.	4c#	.	4ee
.	.	4d	.	[2ff
.	.	4e	4g	.
=9	=9	=9	=9	=9
1D]	1d]	4f	2a	4ff]
.	.	4g	.	4ee
.	.	2.a	2f	1dd
1A	1e	.	1a	.
.	.	4g	.	.
.	.	2e	.	2cc#
=10	=10	=10	=10	=10
[0D	[0d	[0f#	[0a	[0dd
=11	=11	=11	=11	=11
0D]	0d]	0f#]	0a]	0dd]
*	*	*	*	*-
!! Pleni
*Ibass	*Itenor	*Icalto	*Icant
!Bassus	!Tenor	!Altus	!Cantus
*clefF4	*clefGv2	*clefG2	*clefG2
*k[]	*k[]	*k[]	*k[]
*G:mix	*G:mix	*G:mix	*G:mix
*M4/2	*M4/2	*M4/2	*M4/2
=12	=12	=12	=12
0r	0r	1c	0r
.	.	1e	.
=13	=13	=13	=13
0r	0r	1f	1r
.	.	2g	1g
.	.	4e	.
.	.	4f	.
=14	=14	=14	=14
0r	0r	4g	1b
.	.	4a	.
.	.	4b	.
.	.	4g	.
.	.	4a	1cc
.	.	4b	.
.	.	[2cc	.
=15	=15	=15	=15
0r	1G	4cc]	1dd
.	.	4b	.
.	.	2.b	.
.	1B	.	1dd
.	.	4a	.
.	.	4g	.
.	.	4f	.
=16	=16	=16	=16
0r	1c	1e	1gg
.	1d	4d	[1ff
.	.	4e	.
.	.	4f	.
.	.	4g	.
=17	=17	=17	=17
0r	1d	2a	1ff]
.	.	1b-	.
.	1g	.	1dd
.	.	4a	.
.	.	4g	.
=18	=18	=18	=18
0r	2d	2a	2.ff
.	2d	4f	.
.	.	4g	8ee
.	.	.	8dd
.	2.f	4a	2cc
.	.	4g	.
.	.	4a	2dd
.	8e	4b	.
.	8d	.	.
=19	=19	=19	=19
0r	2c	4cc	2ee
.	.	4b	.
.	2d	2.a	4dd
.	.	.	4cc
.	1e	.	2b
.	.	4g	.
.	.	[2g	4a
.	.	.	4g
=20	=20	=20	=20
1r	1d	2g]	1a
.	.	2f#	.
1C	1e	1g	2g
.	.	.	2cc
=21	=21	=21	=21
1E	2g	2r	2b
.	2g	2e	2ee
1F	2.f	2a	4dd
.	.	.	4cc
.	.	2a	[2cc
.	4e	.	.
=22	=22	=22	=22
1G	1d	1g	2cc]
.	.	.	2b
1A	2c	2e	1cc
.	2e	[2a	.
=23	=23	=23	=23
1d	1f	2a]	2r
.	.	4g	2a
.	.	4f	.
2c	1e	2g	2.cc
2A	.	2a	.
.	.	.	8b
.	.	.	8a
=24	=24	=24	=24
2.c	2r	2e	2g
.	2e	2c	2a
8B	.	.	.
8A	.	.	.
2G	2g	4d	2b-
.	.	4e	.
2A	4f	[2f	[2a
.	4e	.	.
=25	=25	=25	=25
1B-	1d	2f]	4a]
.	.	.	8g
.	.	.	8f
.	.	4e	2g
.	.	4d	.
[1A	2e	2c#	1a
.	2f	[2d	.
=26	=26	=26	=26
1A]	1e	2d]	2r
.	.	2c#	1a
1D	2r	1d	.
.	[2d	.	2a
=27	=27	=27	=27
2r	2d]	2.G	1b
1G	2d	.	.
.	.	4A	.
.	2G	1B	1dd
2G	[2g	.	.
=28	=28	=28	=28
2C	4g]	1c	1ee
.	4f	.	.
1c	4e	.	.
.	4d	.	.
.	2e	2r	1r
4B	4d	[2g	.
4A	4c	.	.
=29	=29	=29	=29
2B	2d	2g]	0r
2c	1e	2g	.
1A	.	2c	.
.	2f#	[2cc	.
=30	=30	=30	=30
0G	1g	2cc]	1.dd
.	.	4b	.
.	.	4a	.
.	2.g	2.b	.
.	.	.	2dd
.	4f	4a	.
=31	=31	=31	=31
0r	2e	4b	2g
.	.	4cc	.
.	2f	2a	1cc
.	2e	2g	.
.	4d	4f#	4b
.	4c	4e	4a
=32	=32	=32	=32
1r	2d	2f#	2b
.	2e	2g	2cc
[1d	2f#	2a	1dd
.	[2g	2b	.
=33	=33	=33	=33
2d]	2g]	2a	2r
2d	2f#	1d	2a
2G	[1g	.	2b
[2c	.	2e	2cc
=34	=34	=34	=34
2c]	1g]	2c	2ee
4B	.	2d	1dd
4A	.	.	.
2B	1r	2G	.
2c	.	[2g	4cc
.	.	.	4b
=35	=35	=35	=35
2.d	2r	2g]	1a
.	1d	2f#	.
4c	.	.	.
4B	.	1g	2.b
4A	.	.	.
4G	2d	.	.
4F	.	.	8cc
.	.	.	8dd
=36	=36	=36	=36
4E	2G	2r	1ee
4D	.	.	.
2C	1c	1g	.
2.G	.	.	1dd
.	4B	2g	.
4F	4A	.	.
=37	=37	=37	=37
1E	2B	2G	1r
.	2c	1g	.
1D	[1d	.	1dd
.	.	4f#	.
.	.	4e	.
=38	=38	=38	=38
0r	2d]	2f#	2dd
.	2B	2g	2g
.	1c	1e	1cc
=39	=39	=39	=39
2r	1G	1d	2.b
1G	.	.	.
.	.	.	4a
.	1d	2r	4b
.	.	.	4cc
2G	.	[2g	4dd
.	.	.	4b
=40	=40	=40	=40
2C	2.e	2g]	4cc
.	.	.	4dd
1c	.	2g	1ee
.	4f#	.	.
.	1g	2c	.
4B	.	[2g	4dd
4A	.	.	4cc
=41	=41	=41	=41
2B	1r	2g]	2dd
2c	.	4f#	2.ee
.	.	4e	.
2d	1d	2f#	.
.	.	.	4dd
2B	.	2g	2dd
=42	=42	=42	=42
0A	2e	0a	2cc#
.	2f#	.	1dd
.	1e	.	.
.	.	.	2cc#
=43	=43	=43	=43
[0D	[0d	[0f#	[0dd
=44	=44	=44	=44
0D]	0d]	0f#]	0dd]
*-	*-	*-	*-
!! Hosanna
**kern	**kern	**kern	**kern	**kern
*Ibass	*Itenor	*Itenor	*Icalto	*Icant
!Bassus	!Tenor 2	!Tenor 1	!Altus	!Cantus
*clefF4	*clefGv2	*clefGv2	*clefG2	*clefG2
*k[]	*k[]	*k[]	*k[]	*k[]
*G:mix	*G:mix	*G:mix	*G:mix	*G:mix
*M4/2	*M4/2	*M4/2	*M4/2	*M4/2
=45	=45	=45	=45	=45
0r	0d	0f#	0a	[0dd
=46	=46	=46	=46	=46
0G	1G	1.g	0b	0dd]
.	1d	.	.	.
.	.	2g	.	.
=47	=47	=47	=47	=47
1C	1c	2e	1cc	1ee
.	.	2c	.	.
1G	1B	2d	2r	2dd
.	.	[2e	2g	2b
=48	=48	=48	=48	=48
1F	1A	2e]	2a	2cc
.	.	1d	2f	2dd
1E	1G	.	1g	2ee
.	.	2c#	.	[2gg
=49	=49	=49	=49	=49
0D	1A	1d	1r	2gg]
.	.	.	.	1ff
.	1B	1r	2r	.
.	.	.	2d	4ee
.	.	.	.	4dd
=50	=50	=50	=50	=50
0C	1.c	2r	2g	2.ee
.	.	2.g	4c	.
.	.	.	4d	4ff
.	.	.	4e	2gg
.	.	4f	4f	.
.	2B	2e	4g	2g
.	.	.	4e	.
=51	=51	=51	=51	=51
0D	2A	1d	2f#	0dd
.	2B	.	1g	.
.	1A	1d	.	.
.	.	.	2f#	.
=52	=52	=52	=52	=52
[0G	[0G	[0d	[0g	[0b
=53	=53	=53	=53	=53
0G]	0G]	0d]	0g]	0b]
==	==	==	==	==
*-	*-	*-	*-	*-
!!!CDT: 1525/^1526/-1594/2/2
!!!OCY: Italia
!!!AGN: Mass (Paraphrase)
!!!AST: renaissance, vocal
!!!ASW: Gregorian Mass
!!!PWK: Masses, Book Mantuan I
!!!RNB: Cadence finals: D
!!!YOR: Le Opere Complete, v. 18, p. 83
!!!YOO: Rome, Italy: Fratelli Scalera
!!!END: 1992//
!!!EED: John Miller
!!!YEC: Copyright 2000, John Miller
!!!YEN: United States of America
!!!YEM: Rights to all derivative electronic formats reserved.
!!!YEM: Refer to licensing agreement for further details.
!!!YEM: This file must be accompanied by the licensing agreement.
!!!YEM: A copy of the licensing agreement may be found at http://www.music-cog.ohio-state.edu/HumdrumDatabases/Palestrina/license.txt
!!!EMD: converted to Humdrum by Bret Aarden
